img/line-btn-v.svg

<svg width="6" height="43" viewBox="0 0 6 43" fill="none" xmlns="http://www.w3.org/2000/svg" preserveAspectRatio="none">
<path d="M0.24324 27.1509C-0.471909 25.5238 0.6588 23.9028 0.245656 22.2758C0.34713 22.2337 0.448604 22.1917 0.550078 22.1497C1.52616 22.8972 1.61072 24.0559 1.49475 25.3137C1.31113 26.1122 0.992213 26.7756 0.332634 27.0938L0.24324 27.1509Z" fill="#D5D5D5"/>
<path d="M0.762492 40.6986C0.738332 40.8907 0.716587 41.0798 0.692427 41.272C-0.271574 39.1616 0.44599 36.9072 0.281699 34.7308C0.419414 34.7248 0.557128 34.7188 0.697259 34.7128C1.17322 35.115 1.27228 35.7064 1.31335 36.3278C1.24087 37.8048 1.66851 39.3628 0.762492 40.6986Z" fill="#C1C1C1"/>
<path d="M5.01021 8.10358C5.42094 10.9554 4.51009 13.8973 5.45234 16.7101C4.86283 21.3511 4.92806 26.001 5.42335 30.642C5.65529 32.8184 4.7976 34.9288 5.19141 37.1051C5.11651 37.1772 5.04162 37.2492 4.96914 37.3243C4.70095 37.3873 4.49317 37.2883 4.34338 37.0241C3.78286 35.6822 4.09453 34.2443 4.0003 32.8514C3.99547 32.4252 3.99547 31.9959 3.99789 31.5696C3.99789 30.8401 3.99547 30.1077 3.99305 29.3782C3.99547 25.5688 3.99305 21.7593 3.99064 17.9499C3.98822 17.4936 3.98822 17.0343 3.99064 16.578C4.15976 13.8553 3.64998 11.0935 4.33372 8.39777C4.49317 8.10358 4.7227 8.00752 5.01021 8.10358Z" fill="#A3A3A3"/>
<path d="M4.91352 10.6613C4.89178 12.8977 4.87245 15.1372 4.8507 17.3736C3.69825 17.4156 3.73449 16.5811 3.36725 16.0407C3.10632 15.0651 3.08457 14.0865 3.31651 13.1049C3.78523 11.79 3.87704 10.4752 3.33343 9.15733C2.95652 8.27777 2.60861 7.39521 2.78499 6.4436C3.03384 5.59705 3.07491 4.7355 2.9976 3.86795C3.01934 3.67282 3.07733 3.48671 3.1643 3.30359C4.05099 2.42703 3.34551 1.19324 4.17904 0.304667C4.31192 0.205605 4.45206 0.166578 4.59702 0.187592C4.7444 0.208605 4.81929 0.23562 4.81929 0.26564C5.17445 3.02141 4.95459 5.78318 4.93285 8.54194C5.16237 9.25039 5.19861 9.95585 4.91352 10.6613Z" fill="#2D2D2D"/>
<path d="M4.67432 8.23279C4.67915 7.27218 4.6864 6.31156 4.69123 5.34795C5.1986 6.19449 5.17685 7.13709 5.01015 8.10671C4.89659 8.13973 4.78304 8.18176 4.67432 8.23279Z" fill="#5D5D5D"/>
<path d="M1.10563 14.0715C1.0114 11.9011 0.777047 9.71566 1.5381 7.63833C1.75313 7.44321 1.96091 7.45221 2.16144 7.66835C2.70505 8.62597 2.44412 9.6166 2.25083 10.6072C2.04064 11.823 2.51177 13.2819 1.43904 14.1915C1.3279 14.1525 1.21677 14.1135 1.10563 14.0715Z" fill="#929292"/>
<path d="M2.01163 7.62337C1.85459 7.62938 1.69513 7.63238 1.53809 7.63838C1.55741 6.71379 1.57674 5.7922 1.59607 4.8676C1.6009 4.69049 1.60815 4.51338 1.62265 4.33627C2.82584 4.18917 3.19066 5.23084 3.483 6.38058C3.33321 7.02299 2.96838 7.43725 2.53591 7.78247C2.33538 7.86352 2.15901 7.81549 2.01163 7.62337Z" fill="#8F8F8F"/>
<path d="M1.56483 16.8723C0.267418 16.449 0.82794 15.1552 0.750626 14.1586C0.866597 14.1226 0.984983 14.0925 1.10578 14.0745L1.18068 14.1466C1.77503 14.6479 2.00697 15.3443 1.91758 16.2239C1.85234 16.4821 1.73396 16.6982 1.56483 16.8723Z" fill="#929292"/>
<path d="M0.721426 38.5071C0.714178 37.9548 0.704514 37.4024 0.697266 36.8531C0.699682 35.0519 0.704514 33.2538 0.70693 31.4526C0.934038 31.2695 1.1394 31.2965 1.33027 31.5367C1.86663 33.578 2.07199 35.6973 2.26045 37.8257C1.88354 38.5311 1.39309 38.8433 0.721426 38.5071Z" fill="#AEAEAE"/>
<path d="M1.11046 31.4436C0.975162 31.4466 0.842279 31.4526 0.706981 31.4526C0.603091 29.9997 1.06456 28.4657 0.330078 27.0938C0.588595 26.5475 0.847111 25.9981 1.10563 25.4518C1.18777 25.5268 1.2675 25.6019 1.35206 25.6739C1.915 26.8297 1.84011 28.0905 1.75071 29.3573C1.74588 29.6155 1.72655 29.8706 1.70239 30.1258C1.62266 30.6511 1.50911 31.1464 1.11046 31.4436Z" fill="#B4B4B4"/>
<path d="M1.56488 16.8723C1.57454 16.6771 1.58179 16.479 1.59145 16.2839C2.9541 16.452 3.46389 17.3406 3.06282 18.9976C2.52888 19.7121 1.89104 19.9673 1.1324 19.6701C0.919793 19.2678 0.888384 18.8686 1.15415 18.4783C1.6132 18.073 1.56729 17.4637 1.56488 16.8723Z" fill="#8D8D8D"/>
<path d="M1.15189 18.4783C1.15673 18.8476 1.16156 19.2168 1.16639 19.583C1.54329 20.0723 1.52638 20.5947 1.24854 21.138C0.845057 21.3151 0.593789 21.2401 0.680766 20.6067V20.3665L0.671102 20.1264C0.75808 19.544 0.637278 18.8656 1.15189 18.4783Z" fill="#929292"/>
<path d="M0.680381 20.6066C0.844672 20.7837 1.00896 20.9609 1.17567 21.141C1.64921 21.3331 1.88599 21.7834 2.03337 22.3417C2.10102 22.6149 2.13726 22.8941 2.14692 23.1793C2.06236 24.1129 2.31846 25.2656 1.18775 25.5298L1.10802 25.4547C1.13943 24.263 0.859169 23.1913 0.322807 22.2157C0.308311 21.6303 0.250326 21.0359 0.680381 20.6066Z" fill="#B4B4B4"/>
<path d="M0.72168 36.2437C1.14932 36.0726 1.57696 35.8985 2.0046 35.7273C2.49989 35.262 1.86205 33.7581 3.16672 34.0343C3.74415 34.4996 3.47355 35.118 3.39382 35.7003C3.33342 35.9225 3.24645 36.1356 3.14014 36.3337C2.82122 36.8861 2.25104 37.1262 1.90796 37.6486C1.72434 38.2189 2.03118 38.6182 2.27278 39.0415C3.01692 40.0381 3.95918 41.0047 2.698 42.3406C2.60136 42.2955 2.5023 42.2505 2.40566 42.2055C2.61586 40.6025 1.89588 40.3533 0.765168 40.6985C0.748256 39.2156 0.736176 37.7296 0.72168 36.2437Z" fill="#8C8C8C"/>
<path d="M4.64022 18.4573C4.63297 22.789 4.62572 27.1238 4.61847 31.4556C2.73638 30.4259 3.91541 28.3186 3.55783 26.7546C3.56025 25.7999 3.56025 24.8423 3.56025 23.8877C3.58924 22.4648 3.50709 21.0389 3.64722 19.619C3.8091 19.0066 3.91541 18.3192 4.64022 18.4573Z" fill="#2D2D2D"/>
<path d="M4.16442 26.5655C4.38427 28.1865 3.75852 29.9276 4.61622 31.4556C4.58722 32.1761 4.55581 32.8965 4.52682 33.617C3.97838 33.7701 3.6498 33.4129 3.39853 32.8635C3.14726 32.1731 3.15692 31.4316 3.1376 30.6961C3.20766 29.3663 2.92498 27.9854 3.52416 26.7366C3.70295 26.4664 3.91556 26.4124 4.16442 26.5655Z" fill="#1E1E1E"/>
<path d="M4.68408 37.1743C4.63817 37.3694 4.58985 37.5646 4.54395 37.7597C4.33617 37.8647 4.15255 37.8257 3.99067 37.6426C3.55578 36.9161 3.60411 36.0426 3.42773 35.2351C3.46398 34.7578 3.54612 34.2805 3.49055 33.7971C3.67175 33.2058 3.85779 32.6204 4.56327 32.7285C4.60435 34.2084 4.64542 35.6914 4.68408 37.1743Z" fill="#242424"/>
<path d="M4.64059 18.4573C4.2951 18.6915 4.20571 19.0937 4.17671 19.538C3.94719 19.7151 3.74424 19.6791 3.56546 19.427C3.24654 18.3072 3.12574 17.1755 3.48089 16.0288C3.56304 15.9237 3.6476 15.8216 3.72975 15.7166C4.02692 16.2689 4.32409 16.8183 4.62127 17.3706C4.6261 17.7339 4.63335 18.0971 4.64059 18.4573Z" fill="#131313"/>
<path d="M4.56538 34.7068C4.31652 35.046 4.06767 35.3882 3.81882 35.7274C3.10126 34.8599 3.10609 33.9923 3.80916 33.1157C4.04834 33.2809 4.28995 33.449 4.52914 33.6141C4.54122 33.9803 4.5533 34.3435 4.56538 34.7068Z" fill="#111111"/>
<path d="M2.01173 7.62337C2.1591 7.62037 2.30648 7.62036 2.45386 7.61736C2.92741 7.50029 2.97814 6.85788 3.30431 6.55469C2.93224 5.59107 2.29923 4.93365 1.62033 4.33627C1.48261 2.71523 2.14702 2.12085 3.35263 2.21991C3.25116 3.52575 3.47343 4.77154 3.79477 6.00233C4.12576 6.88189 3.89382 7.81549 3.96389 8.71607C3.87933 10.202 2.93465 10.8144 2.11078 11.5469C1.67831 11.3157 1.90542 10.6463 1.59375 10.3341C1.97548 9.48756 2.07937 8.57498 2.01173 7.62337Z" fill="#818181"/>
<path d="M2.01163 11.4028C2.5794 10.6703 3.14717 9.93781 3.71494 9.20234C4.116 9.9228 4.01211 10.6703 3.79225 11.4238C3.77051 12.8557 3.74876 14.2846 3.7246 15.7165L3.71735 15.7105C3.52407 15.9146 3.31387 15.9447 3.08677 15.8066C1.63231 14.7589 1.55499 13.1829 2.01163 11.4028Z" fill="#5D5D5D"/>
<path d="M3.7946 11.4268C3.76802 10.6853 3.74145 9.94681 3.71729 9.20534C3.74386 8.13665 3.77044 7.06797 3.79701 6.00229C4.41794 7.80944 4.40828 9.6166 3.7946 11.4268Z" fill="#414141"/>
<path d="M2.01176 11.4027C1.5962 13.2399 2.68583 14.3776 3.30676 15.7315C3.74889 16.7251 3.46622 17.7818 3.48554 18.8115C3.32367 19.1027 3.12072 19.1567 2.8767 18.9676C3.02166 17.6437 2.14464 17.0824 1.58895 16.2779C1.45124 15.5664 1.31352 14.8519 1.17822 14.1405C1.94652 12.9757 1.42224 11.5949 1.59137 10.328C1.91512 10.5772 2.00209 10.9675 2.01176 11.4027Z" fill="#848484"/>
<path d="M3.30455 6.5546C3.21757 7.12496 3.59447 7.83041 3.03395 8.22967C2.95905 8.2837 2.65463 7.83341 2.4541 7.61728C2.48551 6.94785 2.74644 6.56361 3.30455 6.5546Z" fill="#A0A0A0"/>
<path d="M3.29703 36.3277C2.38377 36.2707 2.58189 37.5916 2.00687 37.9518C1.17816 35.8955 1.0332 33.6921 1.11052 31.4436C1.14434 30.9003 1.18058 30.3569 1.21441 29.8136C1.72419 29.7175 1.91506 30.2038 2.147 30.6121C2.55289 31.4766 3.49032 31.8759 3.52897 33.0647C3.42025 34.1483 3.78024 35.2831 3.29703 36.3277Z" fill="#989898"/>
<path d="M1.65666 30.9783C1.50929 30.591 1.36191 30.2008 1.21453 29.8135C1.19278 29.6454 1.18312 29.4803 1.19037 29.3092C1.4513 28.5617 2.16403 28.1565 1.79679 26.9497C1.42231 25.7189 1.70257 24.296 2.19786 23.0442C4.20317 22.6449 3.07971 24.8363 3.59675 25.6709C3.63057 25.929 3.62332 26.1872 3.575 26.4424C3.5291 26.7936 3.49527 27.1598 3.53635 27.5111C3.75137 29.3873 3.5146 30.8612 1.65666 30.9783Z" fill="#848484"/>
<path d="M2.44916 23.3355C2.01186 24.3261 1.64704 25.65 2.15682 26.4155C3.50256 28.4268 2.20031 28.7179 1.1904 29.3093C1.1904 28.0485 1.18799 26.7877 1.18799 25.5299C1.82099 24.7344 1.51657 23.7348 1.56247 22.8102C2.07226 22.4259 2.24622 22.9182 2.44916 23.3355Z" fill="#989898"/>
<path d="M2.87899 18.9706C3.0167 18.9857 3.15442 18.9857 3.29213 18.9706C3.60139 19.3459 3.62072 19.8262 3.6038 20.3215C3.5434 20.5557 3.43951 20.7598 3.30421 20.9399C2.81134 21.3271 2.48759 21.9365 2.06962 22.4198C1.87392 22.5069 1.69996 22.4679 1.55017 22.2788C1.42453 21.9005 1.2989 21.5193 1.17326 21.141C1.17326 20.6217 1.16843 20.1024 1.16602 19.583C1.68546 19.1538 2.26048 18.9706 2.87899 18.9706Z" fill="#5C5C5C"/>
<path d="M1.55024 22.2788C1.69762 22.2758 1.84258 22.2728 1.98996 22.2698C2.47076 21.7985 2.96121 21.7355 3.45892 22.2248C3.83824 23.5186 3.97595 24.8004 3.31879 26.0372C2.39103 25.4579 3.48308 23.8608 2.44659 23.3355C2.15184 23.1614 1.85708 22.9843 1.55991 22.8102L1.54541 22.546L1.55024 22.2788Z" fill="#808080"/>
<path d="M3.7104 42.2595C3.59443 42.2385 3.48088 42.2085 3.36733 42.1755C2.84546 41.479 3.28035 40.5244 2.89136 39.7919C2.45164 38.4201 2.93969 37.0662 2.94935 35.7033C3.06532 35.211 3.18129 34.7187 3.29484 34.2234C3.30209 33.0556 3.31176 31.8849 3.319 30.7171C2.98317 30.0417 2.79472 29.4143 3.71524 29.1681C3.74664 29.8646 3.77564 30.558 3.80705 31.2545C3.80946 32.062 3.81188 32.8665 3.81671 33.671C3.80705 34.2114 3.79738 34.7517 3.79013 35.2951C4.14288 36.0906 3.85778 36.9581 4.00999 37.7747C4.2516 39.1765 4.31683 40.5754 3.981 41.9683C3.89161 42.0674 3.7998 42.1635 3.7104 42.2595Z" fill="#303030"/>
<path d="M3.32125 26.0372C3.314 24.7884 3.30917 23.5396 3.30192 22.2908C3.16421 22.0446 3.18354 21.8165 3.35508 21.6063C4.53894 21.8435 3.57252 23.2934 4.1717 23.8608C4.16928 24.7614 4.16687 25.6619 4.16445 26.5625C4.02915 26.5715 3.89385 26.5745 3.75614 26.5775C3.49037 26.5205 3.47346 26.2083 3.36716 25.9891L3.32125 26.0372Z" fill="#141414"/>
<path d="M4.17151 23.8638C3.88883 23.1433 3.60857 22.4258 3.32589 21.7054C3.0263 22.0416 2.60591 22.0536 2.48752 21.6544C2.22417 20.7718 3.10845 21.051 3.30898 20.5947L3.27032 20.5677C3.6279 20.3695 3.43944 19.7571 3.77044 19.538C3.90574 19.538 4.04104 19.538 4.17634 19.538C4.17392 20.9819 4.17392 22.4228 4.17151 23.8638Z" fill="#131313"/>
<path d="M3.36727 25.9921C3.49774 26.1872 3.6282 26.3854 3.75626 26.5805C3.74176 28.0094 3.72726 29.4353 3.71518 30.8642C3.27546 31.3085 3.36002 31.9449 3.31895 32.5393C2.80433 31.9509 1.66879 32.3952 1.6543 30.9783C3.67894 30.0927 3.22473 27.8833 3.36727 25.9921Z" fill="#606060"/>
<path d="M4.19368 37.7356C4.04871 37.7386 3.90375 37.7386 3.75879 37.7416C3.76845 36.9251 3.77812 36.1115 3.78778 35.295C4.44978 35.9915 4.08495 36.916 4.19368 37.7356Z" fill="#151515"/>
<path d="M3.77063 19.538C3.72231 19.9702 3.66191 20.3935 3.27051 20.5676C3.27776 20.0333 3.285 19.5019 3.29225 18.9706C3.29708 17.8929 3.30192 16.8122 3.30675 15.7345C3.44446 15.7315 3.58218 15.7255 3.71989 15.7135C3.7368 16.9863 3.75372 18.2622 3.77063 19.538Z" fill="#323232"/>
<path d="M2.56263 35.3341C2.23888 35.241 2.10599 34.9409 2.09875 34.5776C2.0915 34.2294 2.14465 33.8151 2.53847 33.9412C2.67618 33.9862 2.80423 34.3105 2.8453 34.5326C2.9057 34.8508 2.92262 35.22 2.56263 35.3341Z" fill="#B8B8B8"/>
<path d="M3.30905 20.5947C3.57482 20.9579 1.96332 21.3692 3.32597 21.7054C3.31872 21.9005 3.30905 22.0956 3.30181 22.2908C2.8645 22.2818 2.4272 22.2758 1.98989 22.2668C1.85943 21.012 2.36921 20.5376 3.30905 20.5947Z" fill="#1E1E1E"/>
</svg>

<svg width="6" height="43" fill="none" xmlns="http://www.w3.org/2000/svg" preserveAspectRatio="none"><path d="M.243 27.15c-.715-1.626.416-3.247.003-4.874l.304-.126c.976.747 1.06 1.906.945 3.164-.184.798-.503 1.462-1.162 1.78l-.09.057z" fill="#D5D5D5"/><path d="M.762 40.699c-.024.192-.045.38-.07.573-.964-2.11-.246-4.365-.41-6.541l.415-.018c.476.402.575.993.616 1.615-.072 1.477.356 3.035-.55 4.37z" fill="#C1C1C1"/><path d="M5.01 8.104c.41 2.851-.5 5.793.442 8.606-.59 4.641-.524 9.291-.029 13.932.232 2.176-.625 4.287-.232 6.463-.074.072-.15.144-.222.22-.268.062-.476-.037-.626-.3-.56-1.343-.248-2.78-.343-4.174a75.54 75.54 0 01-.002-1.281c0-.73-.003-1.462-.005-2.192.002-3.81 0-7.619-.002-11.428-.003-.456-.003-.916 0-1.372.169-2.723-.341-5.484.343-8.18.16-.294.389-.39.676-.294z" fill="#A3A3A3"/><path d="M4.914 10.661c-.022 2.237-.042 4.476-.063 6.713-1.153.042-1.117-.793-1.484-1.333a5.923 5.923 0 01-.05-2.936c.468-1.315.56-2.63.016-3.948-.376-.88-.724-1.762-.548-2.713.249-.847.29-1.708.213-2.576.021-.195.08-.381.166-.564.887-.877.182-2.11 1.015-3a.55.55 0 01.418-.116c.147.02.222.048.222.078.355 2.755.136 5.517.114 8.276.23.708.266 1.414-.02 2.12z" fill="#2D2D2D"/><path d="M4.674 8.233l.017-2.885c.508.846.486 1.79.32 2.759a2.314 2.314 0 00-.337.126z" fill="#5D5D5D"/><path d="M1.106 14.072c-.095-2.17-.329-4.356.432-6.434.215-.195.423-.186.623.03.544.958.283 1.949.09 2.94-.21 1.215.26 2.674-.812 3.583a14.828 14.828 0 01-.333-.12z" fill="#929292"/><path d="M2.012 7.623c-.157.006-.317.01-.474.015l.058-2.77a9.77 9.77 0 01.027-.532c1.203-.147 1.568.895 1.86 2.045-.15.642-.515 1.056-.947 1.401-.2.082-.377.033-.524-.159z" fill="#8F8F8F"/><path d="M1.565 16.872C.267 16.45.828 15.155.75 14.16c.116-.036.234-.067.355-.085l.075.073c.594.5.826 1.197.737 2.077a1.405 1.405 0 01-.353.648z" fill="#929292"/><path d="M.721 38.507c-.007-.552-.016-1.105-.024-1.654.003-1.801.008-3.6.01-5.4.227-.183.432-.156.623.084.537 2.041.742 4.16.93 6.289-.376.705-.867 1.017-1.539.681z" fill="#AEAEAE"/><path d="M1.11 31.444c-.135.003-.268.009-.403.009-.104-1.453.358-2.987-.377-4.36l.776-1.641c.082.075.161.15.246.222.563 1.156.488 2.416.399 3.683a10.15 10.15 0 01-.049.769c-.08.525-.193 1.02-.592 1.318z" fill="#B4B4B4"/><path d="M1.565 16.872c.01-.195.017-.393.026-.588 1.363.168 1.873 1.057 1.472 2.714-.534.714-1.172.97-1.93.672-.213-.402-.245-.801.021-1.192.46-.405.413-1.014.41-1.606z" fill="#8D8D8D"/><path d="M1.152 18.478l.014 1.105c.377.49.36 1.012.083 1.555-.404.177-.655.102-.568-.531v-.24l-.01-.24c.087-.583-.034-1.261.48-1.649z" fill="#929292"/><path d="M.68 20.607l.496.534c.473.192.71.642.857 1.2.068.274.104.553.114.838-.085.934.171 2.087-.96 2.35l-.079-.074a6.255 6.255 0 00-.785-3.24c-.015-.585-.073-1.18.357-1.608z" fill="#B4B4B4"/><path d="M.722 36.244c.427-.171.855-.346 1.283-.517.495-.465-.143-1.969 1.162-1.693.577.466.307 1.084.227 1.666-.06.222-.148.436-.254.634-.319.552-.889.792-1.232 1.315-.184.57.123.97.365 1.392.744.997 1.686 1.964.425 3.3-.097-.046-.196-.09-.292-.136.21-1.602-.51-1.852-1.64-1.506-.018-1.483-.03-2.97-.044-4.455z" fill="#8C8C8C"/><path d="M4.64 18.457l-.022 12.999c-1.882-1.03-.703-3.137-1.06-4.701.002-.955.002-1.913.002-2.867.03-1.423-.053-2.85.087-4.269.162-.612.268-1.3.993-1.162z" fill="#2D2D2D"/><path d="M4.164 26.566c.22 1.62-.405 3.362.452 4.89l-.09 2.161c-.548.153-.876-.204-1.127-.753-.252-.69-.242-1.432-.261-2.168.07-1.33-.213-2.71.386-3.96.179-.27.392-.324.64-.17z" fill="#1E1E1E"/><path d="M4.684 37.174l-.14.586c-.208.105-.391.066-.553-.117-.435-.727-.387-1.6-.563-2.408.036-.477.118-.954.063-1.438.18-.591.367-1.177 1.072-1.069.041 1.48.082 2.963.121 4.446z" fill="#242424"/><path d="M4.64 18.457c-.345.235-.434.637-.463 1.081-.23.177-.433.141-.612-.111-.318-1.12-.44-2.252-.084-3.398.082-.105.167-.207.249-.312l.891 1.654c.005.363.012.726.02 1.086z" fill="#131313"/><path d="M4.565 34.707l-.746 1.02c-.718-.867-.713-1.735-.01-2.611l.72.498.036 1.093z" fill="#111"/><path d="M2.012 7.623c.147-.003.294-.003.442-.006.473-.117.524-.76.85-1.062C2.932 5.59 2.3 4.934 1.62 4.336c-.137-1.62.527-2.215 1.733-2.116-.102 1.306.12 2.552.442 3.782.33.88.099 1.813.169 2.714-.085 1.486-1.03 2.098-1.853 2.83-.433-.23-.206-.9-.517-1.212.381-.846.485-1.759.418-2.71z" fill="#818181"/><path d="M2.012 11.403l1.703-2.2c.401.72.297 1.467.077 2.22-.021 1.433-.043 2.862-.067 4.293l-.008-.005c-.193.204-.403.234-.63.096-1.455-1.048-1.532-2.624-1.075-4.404z" fill="#5D5D5D"/><path d="M3.795 11.427c-.027-.742-.054-1.48-.078-2.222l.08-3.203c.62 1.807.611 3.615-.002 5.425z" fill="#414141"/><path d="M2.012 11.403c-.416 1.837.674 2.975 1.295 4.329.442.993.16 2.05.179 3.08-.162.29-.365.345-.61.156.146-1.324-.731-1.886-1.287-2.69-.138-.712-.275-1.426-.41-2.137.768-1.165.243-2.546.412-3.813.324.25.411.64.42 1.075z" fill="#848484"/><path d="M3.305 6.555c-.087.57.29 1.275-.271 1.675-.075.054-.38-.397-.58-.613.032-.67.292-1.053.85-1.062z" fill="#A0A0A0"/><path d="M3.297 36.328c-.913-.057-.715 1.264-1.29 1.624-.829-2.056-.974-4.26-.896-6.508.033-.544.07-1.087.103-1.63.51-.096.701.39.933.798.406.865 1.343 1.264 1.382 2.453-.109 1.083.251 2.218-.232 3.263z" fill="#989898"/><path d="M1.657 30.978c-.148-.387-.295-.777-.442-1.165a2.924 2.924 0 01-.025-.504c.261-.747.974-1.152.607-2.36-.375-1.23-.094-2.653.4-3.905 2.006-.4.883 1.792 1.4 2.627.034.258.026.516-.022.771-.046.352-.08.718-.039 1.07.215 1.875-.021 3.35-1.88 3.466z" fill="#848484"/><path d="M2.45 23.335c-.438.991-.803 2.315-.293 3.08 1.346 2.012.043 2.303-.967 2.894l-.002-3.78c.633-.795.329-1.794.374-2.719.51-.384.684.108.887.526z" fill="#989898"/><path d="M2.879 18.97c.138.016.275.016.413 0 .31.376.329.856.312 1.352-.06.234-.164.438-.3.618-.493.387-.816.996-1.234 1.48-.196.087-.37.048-.52-.141l-.377-1.138c0-.52-.005-1.039-.007-1.558a2.602 2.602 0 011.713-.612z" fill="#5C5C5C"/><path d="M1.55 22.279l.44-.01c.48-.47.971-.534 1.469-.044.38 1.294.517 2.575-.14 3.812-.928-.58.164-2.176-.872-2.701-.295-.175-.59-.352-.887-.526l-.015-.264.005-.267z" fill="gray"/><path d="M3.71 42.26a3.402 3.402 0 01-.343-.084c-.522-.697-.087-1.652-.476-2.384-.44-1.372.049-2.726.058-4.089.116-.492.232-.984.346-1.48l.024-3.506c-.336-.675-.524-1.303.396-1.549.032.697.06 1.39.092 2.087.002.807.005 1.612.01 2.416-.01.54-.02 1.08-.027 1.624.353.796.068 1.663.22 2.48.242 1.401.307 2.8-.029 4.193-.09.1-.181.195-.27.291z" fill="#303030"/><path d="M3.321 26.037c-.007-1.249-.012-2.497-.02-3.746-.137-.246-.117-.474.054-.685 1.184.237.218 1.687.817 2.255l-.008 2.701c-.135.01-.27.012-.408.015-.266-.057-.283-.369-.389-.588l-.046.048z" fill="#141414"/><path d="M4.172 23.864l-.846-2.159c-.3.337-.72.349-.838-.05-.264-.883.62-.604.821-1.06l-.039-.027c.358-.199.17-.81.5-1.03h.406l-.004 4.326z" fill="#131313"/><path d="M3.367 25.992l.39.588c-.015 1.43-.03 2.855-.042 4.284-.44.444-.355 1.08-.396 1.675-.515-.588-1.65-.144-1.665-1.56 2.025-.886 1.57-3.096 1.713-4.987z" fill="#606060"/><path d="M4.194 37.736l-.435.006.029-2.447c.662.697.297 1.621.406 2.44z" fill="#151515"/><path d="M3.77 19.538c-.048.432-.108.855-.5 1.03l.022-1.597.015-3.236c.137-.003.275-.01.413-.021l.05 3.824z" fill="#323232"/><path d="M2.563 35.334c-.324-.093-.457-.393-.464-.756-.008-.349.046-.763.44-.637.137.045.265.37.306.592.06.318.078.687-.282.801z" fill="#B8B8B8"/><path d="M3.309 20.595c.266.363-1.346.774.017 1.11-.007.196-.017.39-.024.586-.438-.01-.875-.015-1.312-.024-.13-1.255.38-1.73 1.319-1.672z" fill="#1E1E1E"/></svg>
